X: 281
T:Gavotte
M:4/4
L:1/4
Q:1/2=140
C:Michael Praetorius
R:gavotte
O:France
H:XVI eme siecle
Z:S. Piron
K:G
d2ec|d>cBG|d2ec|d/2c/2B/2A/2G2:|
|:A/2B/2cBG|A2BG|A/2B/2cBG|A2G2:||
W:
W: From "Falaleiro" http://home.t-online.de/home/pheld/homepage.htm
